usr/share/icons/biglinux-icons-material/16/devices/network-wireless-connected-100.svg

<svg xmlns="http://www.w3.org/2000/svg" viewBox="0 0 16 16">
  <defs id="defs3051">
    <style type="text/css" id="current-color-scheme">
      .ColorScheme-Text {
        color:#dedede;
      }
      </style>
  </defs>
 <path 
     style="fill:currentColor;fill-opacity:1;stroke:none" 
     class="ColorScheme-Text"
     d="m 7.9997738,2.5974136 c -3.0209991,0 -5.8744581,1.3332678 -7.82888539,3.6583298 -0.25960384,0.30878 -0.21870885,0.769328 0.0905674,1.028905 0.13683446,0.114927 0.30310611,0.170742 0.46916891,0.170742 0.2084413,0 0.41511118,-0.0879 0.55973638,-0.259824 1.6753731,-1.9933813 4.1208775,-3.1371963 6.7094127,-3.1371963 2.5885352,0 5.0340652,1.1442857 6.7094122,3.1371963 0.144651,0.171919 0.351269,0.259824 0.559737,0.259824 0.166089,0 0.333819,-0.05532 0.470654,-0.170742 0.308779,-0.259133 0.348685,-0.720622 0.08908,-1.028905 C 13.874728,3.9306814 11.020773,2.5974136 7.9997738,2.5974136 Z m 0,3.0941398 c -2.1580059,0 -4.1956292,0.952804 -5.5914248,2.613092 -0.2595776,0.30878 -0.2201935,0.769328 0.089083,1.028906 0.1368345,0.114926 0.3030799,0.170742 0.4691689,0.170742 0.2084412,0 0.4155818,-0.08791 0.5597364,-0.259825 1.1167409,-1.329078 2.7478947,-2.091959 4.4734367,-2.091959 1.7255424,0 3.356199,0.762881 4.473437,2.091959 0.144651,0.172416 0.351791,0.259825 0.559736,0.259825 0.166088,0 0.332308,-0.05532 0.469168,-0.170742 0.309251,-0.259578 0.348634,-0.720597 0.08908,-1.028906 -1.396318,-1.660261 -3.433419,-2.613092 -5.591424,-2.613092 z m 0,3.214401 c -1.2954832,0 -2.5187558,0.570413 -3.3554487,1.5663706 -0.2596039,0.308779 -0.2187089,0.769328 0.090567,1.028905 0.1368345,0.114926 0.30308,0.172226 0.4691689,0.172226 0.2084413,0 0.4155817,-0.08939 0.5597364,-0.261309 0.5586319,-0.6648 1.3734534,-1.045237 2.235976,-1.045237 0.8625228,0 1.6773704,0.380437 2.2359756,1.045237 0.144652,0.172416 0.351766,0.261309 0.559737,0.261309 0.166089,0 0.332334,-0.0568 0.469169,-0.172226 0.309276,-0.259604 0.350145,-0.720152 0.09057,-1.028905 C 10.518506,9.4763674 9.2952334,8.9059544 7.9997764,8.9059544 Z M 7.9374158,11.679396 C 7.3660439,11.733836 6.8165131,12.161224 6.7971572,12.797384 6.7971572,13.461581 7.3355982,14 7.9997738,14 8.6639494,14 9.2023902,13.461581 9.2023902,12.797384 9.1007513,11.943462 8.5087875,11.624955 7.9374161,11.679396 Z"
     />
</svg>

<svg xmlns="http://www.w3.org/2000/svg" viewBox="0 0 16 16"><path d="M8 2.597A10.21 10.21 0 0 0 .17 6.256a.73.73 0 0 0 1.12.94A8.751 8.751 0 0 1 8 4.058a8.753 8.753 0 0 1 6.71 3.138c.144.171.35.26.559.26a.73.73 0 0 0 .56-1.2 10.21 10.21 0 0 0-7.83-3.659Zm0 3.095a7.293 7.293 0 0 0-5.592 2.613.73.73 0 1 0 1.118.94A5.835 5.835 0 0 1 8 7.152c1.725 0 3.356.762 4.473 2.091a.728.728 0 0 0 1.03.09.73.73 0 0 0 .088-1.03A7.294 7.294 0 0 0 8 5.693zm0 3.214c-1.296 0-2.519.57-3.356 1.566a.73.73 0 0 0 1.12.94 2.915 2.915 0 0 1 4.472 0 .73.73 0 0 0 1.029.09.73.73 0 0 0 .09-1.03A4.374 4.374 0 0 0 8 8.906Zm-.063 2.773c-.571.055-1.12.482-1.14 1.118a1.203 1.203 0 0 0 2.405 0c-.101-.854-.693-1.172-1.265-1.118Z" style="fill:currentColor;fill-opacity:1;stroke:none;color:#dedede"/></svg>
